svg/power_socket_jp.svg

<svg xmlns="http://www.w3.org/2000/svg" viewBox="0 0 24 24"><path d="M10 9.5v5H8v-5M19.78 2C21 2 22 3 22 4.22v15.56C22 21 21 22 19.78 22H4.22C3 22 2 21 2 19.78V4.22C2 3 3 2 4.22 2M12 4c-4.42 0-8 3.58-8 8s3.58 8 8 8 8-3.58 8-8-3.58-8-8-8m4 5.5v5h-2v-5Z"/></svg>

<?xml version="1.0" encoding="UTF-8"?><!DOCTYPE svg PUBLIC "-//W3C//DTD SVG 1.1//EN" "http://www.w3.org/Graphics/SVG/1.1/DTD/svg11.dtd"><svg xmlns="http://www.w3.org/2000/svg" xmlns:xlink="http://www.w3.org/1999/xlink" version="1.1" id="mdi-power-socket-jp" width="24" height="24" viewBox="0 0 24 24"><path d="M10 9.5V14.5H8V9.5M19.78 2C21 2 22 3 22 4.22V19.78C22 21 21 22 19.78 22H4.22C3 22 2 21 2 19.78V4.22C2 3 3 2 4.22 2M12 4C7.58 4 4 7.58 4 12C4 16.42 7.58 20 12 20C16.42 20 20 16.42 20 12C20 7.58 16.42 4 12 4M16 9.5V14.5H14V9.5Z" /></svg>
